X:1
T:All Those Endearing Young Charms
C:Traditional
M:3/4
L:1/4
Q:1/4=100
K:D
F/2E/2|D3/2E/2D|DFA|GBd|d2c/2B/2|A3/2G/2F|EDE|FAF|E2F/2E/2|D3/2E/2F|DFA|GBd|d2e/2d/2|AdF|E3/2D/2E|D3-|D3|]
